images/3246560.svg

<?xml version="1.0" encoding="UTF-8"?>
<svg xmlns="http://www.w3.org/2000/svg" xmlns:xlink="http://www.w3.org/1999/xlink" width="300pt" height="300pt" viewBox="0 0 300 300" version="1.1">
<defs>
<g>
<symbol overflow="visible" id="glyph0-0">
<path style="stroke:none;" d="M 0.75 2.65625 L 0.75 -10.578125 L 8.25 -10.578125 L 8.25 2.65625 Z M 1.59375 1.8125 L 7.40625 1.8125 L 7.40625 -9.734375 L 1.59375 -9.734375 Z M 1.59375 1.8125 "/>
</symbol>
<symbol overflow="visible" id="glyph0-1">
<path style="stroke:none;" d="M 9.65625 -10.09375 L 9.65625 -8.53125 C 9.15625 -9 8.625 -9.347656 8.0625 -9.578125 C 7.5 -9.804688 6.898438 -9.921875 6.265625 -9.921875 C 5.015625 -9.921875 4.054688 -9.535156 3.390625 -8.765625 C 2.734375 -8.003906 2.40625 -6.898438 2.40625 -5.453125 C 2.40625 -4.015625 2.734375 -2.910156 3.390625 -2.140625 C 4.054688 -1.378906 5.015625 -1 6.265625 -1 C 6.898438 -1 7.5 -1.113281 8.0625 -1.34375 C 8.625 -1.570312 9.15625 -1.921875 9.65625 -2.390625 L 9.65625 -0.84375 C 9.144531 -0.488281 8.597656 -0.222656 8.015625 -0.046875 C 7.441406 0.128906 6.832031 0.21875 6.1875 0.21875 C 4.53125 0.21875 3.222656 -0.285156 2.265625 -1.296875 C 1.316406 -2.316406 0.84375 -3.703125 0.84375 -5.453125 C 0.84375 -7.210938 1.316406 -8.597656 2.265625 -9.609375 C 3.222656 -10.628906 4.53125 -11.140625 6.1875 -11.140625 C 6.832031 -11.140625 7.445312 -11.050781 8.03125 -10.875 C 8.613281 -10.695312 9.15625 -10.4375 9.65625 -10.09375 Z M 9.65625 -10.09375 "/>
</symbol>
<symbol overflow="visible" id="glyph0-2">
<path style="stroke:none;" d="M 1.40625 -11.390625 L 2.765625 -11.390625 L 2.765625 0 L 1.40625 0 Z M 1.40625 -11.390625 "/>
</symbol>
<symbol overflow="visible" id="glyph0-3">
<path style="stroke:none;" d="M 8.03125 -10.578125 L 8.03125 -9.140625 C 7.46875 -9.398438 6.9375 -9.597656 6.4375 -9.734375 C 5.9375 -9.867188 5.457031 -9.9375 5 -9.9375 C 4.1875 -9.9375 3.5625 -9.78125 3.125 -9.46875 C 2.6875 -9.15625 2.46875 -8.707031 2.46875 -8.125 C 2.46875 -7.644531 2.613281 -7.28125 2.90625 -7.03125 C 3.195312 -6.789062 3.75 -6.59375 4.5625 -6.4375 L 5.453125 -6.25 C 6.554688 -6.039062 7.367188 -5.671875 7.890625 -5.140625 C 8.421875 -4.609375 8.6875 -3.898438 8.6875 -3.015625 C 8.6875 -1.953125 8.332031 -1.144531 7.625 -0.59375 C 6.914062 -0.0507812 5.875 0.21875 4.5 0.21875 C 3.976562 0.21875 3.425781 0.15625 2.84375 0.03125 C 2.257812 -0.0820312 1.65625 -0.253906 1.03125 -0.484375 L 1.03125 -2 C 1.632812 -1.664062 2.222656 -1.410156 2.796875 -1.234375 C 3.367188 -1.066406 3.9375 -0.984375 4.5 -0.984375 C 5.34375 -0.984375 5.992188 -1.148438 6.453125 -1.484375 C 6.910156 -1.816406 7.140625 -2.289062 7.140625 -2.90625 C 7.140625 -3.445312 6.972656 -3.867188 6.640625 -4.171875 C 6.316406 -4.472656 5.78125 -4.695312 5.03125 -4.84375 L 4.125 -5.03125 C 3.019531 -5.25 2.21875 -5.59375 1.71875 -6.0625 C 1.226562 -6.53125 0.984375 -7.179688 0.984375 -8.015625 C 0.984375 -8.984375 1.320312 -9.742188 2 -10.296875 C 2.6875 -10.859375 3.628906 -11.140625 4.828125 -11.140625 C 5.335938 -11.140625 5.859375 -11.09375 6.390625 -11 C 6.921875 -10.90625 7.46875 -10.765625 8.03125 -10.578125 Z M 8.03125 -10.578125 "/>
</symbol>
<symbol overflow="visible" id="glyph0-4">
<path style="stroke:none;" d="M 5.90625 -9.9375 C 4.832031 -9.9375 3.976562 -9.535156 3.34375 -8.734375 C 2.71875 -7.929688 2.40625 -6.835938 2.40625 -5.453125 C 2.40625 -4.078125 2.71875 -2.988281 3.34375 -2.1875 C 3.976562 -1.382812 4.832031 -0.984375 5.90625 -0.984375 C 6.976562 -0.984375 7.828125 -1.382812 8.453125 -2.1875 C 9.085938 -2.988281 9.40625 -4.078125 9.40625 -5.453125 C 9.40625 -6.835938 9.085938 -7.929688 8.453125 -8.734375 C 7.828125 -9.535156 6.976562 -9.9375 5.90625 -9.9375 Z M 5.90625 -11.140625 C 7.4375 -11.140625 8.660156 -10.625 9.578125 -9.59375 C 10.503906 -8.5625 10.96875 -7.179688 10.96875 -5.453125 C 10.96875 -3.734375 10.503906 -2.359375 9.578125 -1.328125 C 8.660156 -0.296875 7.4375 0.21875 5.90625 0.21875 C 4.375 0.21875 3.144531 -0.289062 2.21875 -1.3125 C 1.300781 -2.34375 0.84375 -3.722656 0.84375 -5.453125 C 0.84375 -7.179688 1.300781 -8.5625 2.21875 -9.59375 C 3.144531 -10.625 4.375 -11.140625 5.90625 -11.140625 Z M 5.90625 -11.140625 "/>
</symbol>
<symbol overflow="visible" id="glyph0-5">
<path style="stroke:none;" d="M 1.46875 -10.9375 L 2.953125 -10.9375 L 2.953125 -6.453125 L 8.328125 -6.453125 L 8.328125 -10.9375 L 9.8125 -10.9375 L 9.8125 0 L 8.328125 0 L 8.328125 -5.203125 L 2.953125 -5.203125 L 2.953125 0 L 1.46875 0 Z M 1.46875 -10.9375 "/>
</symbol>
<symbol overflow="visible" id="glyph0-6">
<path style="stroke:none;" d="M 1.46875 -10.9375 L 3.46875 -10.9375 L 8.3125 -1.78125 L 8.3125 -10.9375 L 9.75 -10.9375 L 9.75 0 L 7.75 0 L 2.90625 -9.140625 L 2.90625 0 L 1.46875 0 Z M 1.46875 -10.9375 "/>
</symbol>
<symbol overflow="visible" id="glyph1-0">
<path style="stroke:none;" d="M 0.59375 2.125 L 0.59375 -8.46875 L 6.59375 -8.46875 L 6.59375 2.125 Z M 1.265625 1.453125 L 5.9375 1.453125 L 5.9375 -7.78125 L 1.265625 -7.78125 Z M 1.265625 1.453125 "/>
</symbol>
<symbol overflow="visible" id="glyph1-1">
<path style="stroke:none;" d="M 2.296875 -1 L 6.4375 -1 L 6.4375 0 L 0.875 0 L 0.875 -1 C 1.320312 -1.457031 1.929688 -2.078125 2.703125 -2.859375 C 3.484375 -3.648438 3.972656 -4.160156 4.171875 -4.390625 C 4.554688 -4.804688 4.820312 -5.160156 4.96875 -5.453125 C 5.125 -5.753906 5.203125 -6.046875 5.203125 -6.328125 C 5.203125 -6.796875 5.035156 -7.175781 4.703125 -7.46875 C 4.378906 -7.757812 3.957031 -7.90625 3.4375 -7.90625 C 3.0625 -7.90625 2.664062 -7.84375 2.25 -7.71875 C 1.84375 -7.59375 1.40625 -7.394531 0.9375 -7.125 L 0.9375 -8.328125 C 1.414062 -8.515625 1.859375 -8.65625 2.265625 -8.75 C 2.679688 -8.851562 3.0625 -8.90625 3.40625 -8.90625 C 4.3125 -8.90625 5.035156 -8.675781 5.578125 -8.21875 C 6.117188 -7.769531 6.390625 -7.164062 6.390625 -6.40625 C 6.390625 -6.050781 6.320312 -5.710938 6.1875 -5.390625 C 6.050781 -5.066406 5.804688 -4.6875 5.453125 -4.25 C 5.347656 -4.132812 5.035156 -3.804688 4.515625 -3.265625 C 3.992188 -2.722656 3.253906 -1.96875 2.296875 -1 Z M 2.296875 -1 "/>
</symbol>
</g>
</defs>
<g id="surface51813">
<rect x="0" y="0" width="300" height="300" style="fill:rgb(100%,100%,100%);fill-opacity:1;stroke:none;"/>
<path style="fill:none;stroke-width:1.2;stroke-linecap:butt;stroke-linejoin:miter;stroke:rgb(0%,0%,0%);stroke-opacity:1;stroke-miterlimit:10;" d="M 35.25 170.3125 L 48.46875 136.8125 "/>
<path style="fill:none;stroke-width:1.2;stroke-linecap:butt;stroke-linejoin:miter;stroke:rgb(0%,0%,0%);stroke-opacity:1;stroke-miterlimit:10;" d="M 44.453125 170.074219 L 55.027344 143.273438 "/>
<path style="fill:none;stroke-width:1.2;stroke-linecap:butt;stroke-linejoin:miter;stroke:rgb(0%,0%,0%);stroke-opacity:1;stroke-miterlimit:10;" d="M 57.652344 198.507812 L 35.25 170.3125 "/>
<path style="fill:none;stroke-width:1.2;stroke-linecap:butt;stroke-linejoin:miter;stroke:rgb(0%,0%,0%);stroke-opacity:1;stroke-miterlimit:10;" d="M 48.46875 136.8125 L 84.089844 131.511719 "/>
<path style="fill:none;stroke-width:1.2;stroke-linecap:butt;stroke-linejoin:miter;stroke:rgb(0%,0%,0%);stroke-opacity:1;stroke-miterlimit:10;" d="M 84.089844 131.511719 L 106.492188 159.707031 "/>
<path style="fill:none;stroke-width:1.2;stroke-linecap:butt;stroke-linejoin:miter;stroke:rgb(0%,0%,0%);stroke-opacity:1;stroke-miterlimit:10;" d="M 92.964844 129.058594 L 110.886719 151.617188 "/>
<path style="fill:none;stroke-width:1.2;stroke-linecap:butt;stroke-linejoin:miter;stroke:rgb(80%,80%,0%);stroke-opacity:1;stroke-miterlimit:10;" d="M 103.984375 101.492188 L 94.035156 116.5 "/>
<path style="fill:none;stroke-width:1.2;stroke-linecap:butt;stroke-linejoin:miter;stroke:rgb(0%,0%,0%);stroke-opacity:1;stroke-miterlimit:10;" d="M 94.035156 116.5 L 84.089844 131.511719 "/>
<path style="fill:none;stroke-width:1.2;stroke-linecap:butt;stroke-linejoin:miter;stroke:rgb(0%,0%,0%);stroke-opacity:1;stroke-miterlimit:10;" d="M 106.492188 159.707031 L 93.273438 193.207031 "/>
<path style="fill:none;stroke-width:1.2;stroke-linecap:butt;stroke-linejoin:miter;stroke:rgb(0%,0%,0%);stroke-opacity:1;stroke-miterlimit:10;" d="M 106.492188 159.707031 L 140.234375 147.113281 "/>
<path style="fill:none;stroke-width:1.2;stroke-linecap:butt;stroke-linejoin:miter;stroke:rgb(0%,0%,0%);stroke-opacity:1;stroke-miterlimit:10;" d="M 93.273438 193.207031 L 57.652344 198.507812 "/>
<path style="fill:none;stroke-width:1.2;stroke-linecap:butt;stroke-linejoin:miter;stroke:rgb(0%,0%,0%);stroke-opacity:1;stroke-miterlimit:10;" d="M 88.464844 185.355469 L 59.96875 189.597656 "/>
<path style="fill:none;stroke-width:1.2;stroke-linecap:butt;stroke-linejoin:miter;stroke:rgb(0%,0%,0%);stroke-opacity:1;stroke-miterlimit:10;" d="M 57.652344 198.507812 L 51.042969 215.257812 "/>
<path style="fill:none;stroke-width:1.2;stroke-linecap:butt;stroke-linejoin:miter;stroke:rgb(0%,80%,0%);stroke-opacity:1;stroke-miterlimit:10;" d="M 51.042969 215.257812 L 44.433594 232.007812 "/>
<path style=" stroke:none;fill-rule:nonzero;fill:rgb(100%,100%,100%);fill-opacity:1;" d="M 29.433594 223.007812 L 44.433594 223.007812 L 44.433594 241.007812 L 29.433594 241.007812 Z M 29.433594 223.007812 "/>
<g style="fill:rgb(0%,80%,0%);fill-opacity:1;">
  <use xlink:href="#glyph0-1" x="29.433594" y="236.62207"/>
  <use xlink:href="#glyph0-2" x="39.677734" y="236.62207"/>
</g>
<path style="fill:none;stroke-width:1.2;stroke-linecap:butt;stroke-linejoin:miter;stroke:rgb(0%,0%,0%);stroke-opacity:1;stroke-miterlimit:10;" d="M 140.234375 147.113281 L 138.683594 111.132812 "/>
<path style="fill:none;stroke-width:1.2;stroke-linecap:butt;stroke-linejoin:miter;stroke:rgb(0%,0%,0%);stroke-opacity:1;stroke-miterlimit:10;" d="M 131.613281 143.882812 L 130.371094 115.097656 "/>
<path style="fill:none;stroke-width:1.2;stroke-linecap:butt;stroke-linejoin:miter;stroke:rgb(0%,0%,0%);stroke-opacity:1;stroke-miterlimit:10;" d="M 140.234375 147.113281 L 170.253906 167.007812 "/>
<path style="fill:none;stroke-width:1.2;stroke-linecap:butt;stroke-linejoin:miter;stroke:rgb(0%,0%,0%);stroke-opacity:1;stroke-miterlimit:10;" d="M 138.683594 111.132812 L 121.332031 106.3125 "/>
<path style="fill:none;stroke-width:1.2;stroke-linecap:butt;stroke-linejoin:miter;stroke:rgb(80%,80%,0%);stroke-opacity:1;stroke-miterlimit:10;" d="M 121.332031 106.3125 L 103.984375 101.492188 "/>
<path style="fill:none;stroke-width:1.2;stroke-linecap:butt;stroke-linejoin:miter;stroke:rgb(80%,80%,0%);stroke-opacity:1;stroke-miterlimit:10;" d="M 107.925781 103.046875 L 114.535156 86.296875 "/>
<path style="fill:none;stroke-width:1.2;stroke-linecap:butt;stroke-linejoin:miter;stroke:rgb(100%,0%,0%);stroke-opacity:1;stroke-miterlimit:10;" d="M 114.535156 86.296875 L 121.144531 69.546875 "/>
<path style="fill:none;stroke-width:1.2;stroke-linecap:butt;stroke-linejoin:miter;stroke:rgb(80%,80%,0%);stroke-opacity:1;stroke-miterlimit:10;" d="M 100.042969 99.933594 L 106.652344 83.183594 "/>
<path style="fill:none;stroke-width:1.2;stroke-linecap:butt;stroke-linejoin:miter;stroke:rgb(100%,0%,0%);stroke-opacity:1;stroke-miterlimit:10;" d="M 106.652344 83.183594 L 113.261719 66.433594 "/>
<path style="fill:none;stroke-width:1.2;stroke-linecap:butt;stroke-linejoin:miter;stroke:rgb(80%,80%,0%);stroke-opacity:1;stroke-miterlimit:10;" d="M 105.941406 97.734375 L 89.976562 89.410156 "/>
<path style="fill:none;stroke-width:1.2;stroke-linecap:butt;stroke-linejoin:miter;stroke:rgb(100%,0%,0%);stroke-opacity:1;stroke-miterlimit:10;" d="M 89.976562 89.410156 L 74.007812 81.085938 "/>
<path style="fill:none;stroke-width:1.2;stroke-linecap:butt;stroke-linejoin:miter;stroke:rgb(80%,80%,0%);stroke-opacity:1;stroke-miterlimit:10;" d="M 102.027344 105.246094 L 86.058594 96.921875 "/>
<path style="fill:none;stroke-width:1.2;stroke-linecap:butt;stroke-linejoin:miter;stroke:rgb(100%,0%,0%);stroke-opacity:1;stroke-miterlimit:10;" d="M 86.058594 96.921875 L 70.089844 88.597656 "/>
<path style=" stroke:none;fill-rule:nonzero;fill:rgb(100%,100%,100%);fill-opacity:1;" d="M 98.984375 92.492188 L 108.984375 92.492188 L 108.984375 110.492188 L 98.984375 110.492188 Z M 98.984375 92.492188 "/>
<g style="fill:rgb(80%,80%,0%);fill-opacity:1;">
  <use xlink:href="#glyph0-3" x="98.984375" y="106.106445"/>
</g>
<path style=" stroke:none;fill-rule:nonzero;fill:rgb(100%,100%,100%);fill-opacity:1;" d="M 111.203125 58.992188 L 123.203125 58.992188 L 123.203125 76.992188 L 111.203125 76.992188 Z M 111.203125 58.992188 "/>
<g style="fill:rgb(100%,0%,0%);fill-opacity:1;">
  <use xlink:href="#glyph0-4" x="111.203125" y="72.606445"/>
</g>
<path style=" stroke:none;fill-rule:nonzero;fill:rgb(100%,100%,100%);fill-opacity:1;" d="M 60.050781 75.84375 L 72.050781 75.84375 L 72.050781 93.84375 L 60.050781 93.84375 Z M 60.050781 75.84375 "/>
<g style="fill:rgb(100%,0%,0%);fill-opacity:1;">
  <use xlink:href="#glyph0-4" x="60.050781" y="89.458008"/>
</g>
<path style="fill:none;stroke-width:1;stroke-linecap:butt;stroke-linejoin:miter;stroke:rgb(0%,0%,0%);stroke-opacity:1;stroke-miterlimit:10;" d="M 202.492188 150.960938 L 202.492188 150.960938 M 199.613281 151.808594 L 200.078125 152.742188 M 196.738281 152.660156 L 197.667969 154.527344 M 193.859375 153.507812 L 195.253906 156.308594 M 190.984375 154.359375 L 192.839844 158.09375 M 188.105469 155.210938 L 190.429688 159.875 M 185.230469 156.058594 L 188.015625 161.660156 M 182.351562 156.910156 L 185.605469 163.441406 M 179.476562 157.757812 L 183.191406 165.226562 M 176.597656 158.609375 L 180.78125 167.011719 M 173.71875 159.460938 L 178.367188 168.792969 M 170.84375 160.308594 L 175.957031 170.578125 M 167.964844 161.160156 L 173.542969 172.359375 M 167.417969 161.320312 L 173.085938 172.699219 "/>
<path style="fill:none;stroke-width:1.2;stroke-linecap:butt;stroke-linejoin:miter;stroke:rgb(0%,0%,0%);stroke-opacity:1;stroke-miterlimit:10;" d="M 202.492188 150.960938 L 232.511719 170.855469 "/>
<path style="fill:none;stroke-width:1.2;stroke-linecap:butt;stroke-linejoin:miter;stroke:rgb(0%,0%,0%);stroke-opacity:1;stroke-miterlimit:10;" d="M 202.492188 150.960938 L 203.601562 132.988281 "/>
<path style="fill:none;stroke-width:1.2;stroke-linecap:butt;stroke-linejoin:miter;stroke:rgb(0%,0%,100%);stroke-opacity:1;stroke-miterlimit:10;" d="M 203.601562 132.988281 L 204.710938 115.015625 "/>
<path style="fill:none;stroke-width:1.2;stroke-linecap:butt;stroke-linejoin:miter;stroke:rgb(0%,0%,0%);stroke-opacity:1;stroke-miterlimit:10;" d="M 228.28125 170.59375 L 227.171875 188.566406 "/>
<path style="fill:none;stroke-width:1.2;stroke-linecap:butt;stroke-linejoin:miter;stroke:rgb(100%,0%,0%);stroke-opacity:1;stroke-miterlimit:10;" d="M 227.171875 188.566406 L 226.0625 206.539062 "/>
<path style="fill:none;stroke-width:1.2;stroke-linecap:butt;stroke-linejoin:miter;stroke:rgb(0%,0%,0%);stroke-opacity:1;stroke-miterlimit:10;" d="M 236.738281 171.113281 L 235.628906 189.085938 "/>
<path style="fill:none;stroke-width:1.2;stroke-linecap:butt;stroke-linejoin:miter;stroke:rgb(100%,0%,0%);stroke-opacity:1;stroke-miterlimit:10;" d="M 235.628906 189.085938 L 234.519531 207.058594 "/>
<path style="fill:none;stroke-width:1.2;stroke-linecap:butt;stroke-linejoin:miter;stroke:rgb(0%,0%,0%);stroke-opacity:1;stroke-miterlimit:10;" d="M 232.511719 170.855469 L 248.628906 162.828125 "/>
<path style="fill:none;stroke-width:1.2;stroke-linecap:butt;stroke-linejoin:miter;stroke:rgb(100%,0%,0%);stroke-opacity:1;stroke-miterlimit:10;" d="M 248.628906 162.828125 L 264.75 154.804688 "/>
<path style=" stroke:none;fill-rule:nonzero;fill:rgb(100%,100%,100%);fill-opacity:1;" d="M 224.292969 197.800781 L 236.292969 197.800781 L 236.292969 215.800781 L 224.292969 215.800781 Z M 224.292969 197.800781 "/>
<g style="fill:rgb(100%,0%,0%);fill-opacity:1;">
  <use xlink:href="#glyph0-4" x="224.292969" y="211.415039"/>
</g>
<path style=" stroke:none;fill-rule:nonzero;fill:rgb(100%,100%,100%);fill-opacity:1;" d="M 253.75 145.804688 L 276.75 145.804688 L 276.75 163.804688 L 253.75 163.804688 Z M 253.75 145.804688 "/>
<g style="fill:rgb(100%,0%,0%);fill-opacity:1;">
  <use xlink:href="#glyph0-4" x="253.75" y="159.418945"/>
  <use xlink:href="#glyph0-5" x="265.298828" y="159.418945"/>
</g>
<path style=" stroke:none;fill-rule:nonzero;fill:rgb(100%,100%,100%);fill-opacity:1;" d="M 189.710938 104.015625 L 219.710938 104.015625 L 219.710938 126.015625 L 189.710938 126.015625 Z M 189.710938 104.015625 "/>
<g style="fill:rgb(0%,0%,100%);fill-opacity:1;">
  <use xlink:href="#glyph0-6" x="189.710938" y="117.629883"/>
  <use xlink:href="#glyph0-5" x="200.686523" y="117.629883"/>
</g>
<g style="fill:rgb(0%,0%,100%);fill-opacity:1;">
  <use xlink:href="#glyph1-1" x="211.71875" y="122.512695"/>
</g>
</g>
</svg>

<svg xmlns="http://www.w3.org/2000/svg" xmlns:xlink="http://www.w3.org/1999/xlink" width="300pt" height="300pt" viewBox="0 0 300 300"><defs><symbol overflow="visible"><path d="M.75 2.656v-13.234h7.5V2.656zm.844-.844h5.812V-9.733H1.594zm0 0"/></symbol><symbol overflow="visible" id="a"><path d="M9.656-10.094v1.563c-.5-.47-1.03-.818-1.594-1.048-.562-.227-1.164-.344-1.796-.344-1.25 0-2.21.387-2.875 1.156-.656.762-.984 1.868-.984 3.313 0 1.437.328 2.543.985 3.312C4.056-1.38 5.017-1 6.267-1c.632 0 1.234-.113 1.796-.344.563-.226 1.094-.578 1.594-1.047v1.546c-.51.356-1.058.62-1.64.797C7.44.13 6.832.22 6.187.22c-1.656 0-2.964-.505-3.92-1.517C1.316-2.317.843-3.703.843-5.453c0-1.758.472-3.145 1.422-4.156.957-1.02 2.265-1.53 3.921-1.53.645 0 1.258.09 1.844.265.583.18 1.126.438 1.626.78zm0 0"/></symbol><symbol overflow="visible" id="b"><path d="M1.406-11.39h1.36V0h-1.36zm0 0"/></symbol><symbol overflow="visible" id="c"><path d="M8.03-10.578v1.437C7.47-9.4 6.94-9.6 6.44-9.735c-.5-.133-.98-.204-1.438-.204-.813 0-1.438.157-1.875.47-.438.312-.656.76-.656 1.343 0 .48.143.844.436 1.094.29.24.844.436 1.656.593l.89.187c1.103.21 1.915.578 2.44 1.11.53.53.795 1.242.795 2.124 0 1.063-.355 1.87-1.062 2.422C6.915-.05 5.875.22 4.5.22 3.977.22 3.426.155 2.844.03 2.258-.08 1.656-.253 1.03-.483V-2c.603.336 1.193.59 1.767.766.57.168 1.14.25 1.703.25.844 0 1.492-.164 1.953-.5.457-.332.688-.805.688-1.422 0-.54-.167-.96-.5-1.266-.324-.3-.86-.523-1.61-.672l-.905-.187C3.02-5.25 2.22-5.595 1.72-6.063 1.226-6.532.983-7.18.983-8.017c0-.968.336-1.726 1.016-2.28.688-.563 1.63-.845 2.828-.845.508 0 1.03.046 1.563.14.532.094 1.08.234 1.64.422zm0 0"/></symbol><symbol overflow="visible" id="d"><path d="M5.906-9.938c-1.074 0-1.93.403-2.562 1.204-.625.804-.938 1.898-.938 3.28 0 1.376.313 2.466.938 3.266.633.805 1.488 1.204 2.562 1.204 1.07 0 1.922-.4 2.547-1.204.633-.8.953-1.89.953-3.265 0-1.383-.32-2.477-.953-3.28-.625-.802-1.476-1.204-2.547-1.204zm0-1.203c1.532 0 2.754.515 3.672 1.546.926 1.03 1.39 2.414 1.39 4.14 0 1.72-.464 3.095-1.39 4.126C8.66-.298 7.438.22 5.906.22c-1.53 0-2.76-.51-3.687-1.532C1.3-2.345.843-3.723.843-5.452c0-1.728.457-3.11 1.375-4.142.925-1.03 2.155-1.547 3.686-1.547zm0 0"/></symbol><symbol overflow="visible" id="e"><path d="M1.47-10.938h1.483v4.485h5.375v-4.484h1.485V0H8.328v-5.203H2.953V0H1.47zm0 0"/></symbol><symbol overflow="visible" id="f"><path d="M1.47-10.938h2L8.31-1.78v-9.158H9.75V0h-2L2.906-9.14V0H1.47zm0 0"/></symbol><symbol overflow="visible"><path d="M.594 2.125V-8.47h6V2.126zm.672-.672h4.671V-7.78h-4.67zm0 0"/></symbol><symbol overflow="visible" id="g"><path d="M2.297-1h4.14v1H.875v-1c.445-.457 1.055-1.078 1.828-1.86.78-.788 1.27-1.3 1.47-1.53.382-.415.647-.77.796-1.063.155-.3.233-.594.233-.875 0-.47-.168-.848-.5-1.14-.324-.29-.746-.438-1.266-.438-.374 0-.773.062-1.187.187-.406.126-.844.325-1.313.595v-1.203c.477-.188.922-.328 1.33-.422.413-.102.796-.156 1.14-.156.905 0 1.628.23 2.17.687.54.45.814 1.056.814 1.814 0 .355-.07.695-.202 1.015-.137.324-.383.702-.735 1.14-.105.117-.418.445-.937.984C3.992-2.723 3.254-1.97 2.296-1zm0 0"/></symbol></defs><g><path fill="#fff" d="M0 0h300v300H0z"/><path d="M35.25 170.313l13.22-33.5M44.453 170.074l10.574-26.8M57.652 198.508L35.25 170.312M48.47 136.813l35.62-5.3M84.09 131.512l22.402 28.195M92.965 129.06l17.922 22.557" stroke-width="1.2" stroke="#000" stroke-miterlimit="10" fill="none"/><path d="M103.984 101.492l-9.95 15.008" stroke-width="1.2" stroke="#cc0" stroke-miterlimit="10" fill="none"/><path d="M94.035 116.5l-9.945 15.012M106.492 159.707l-13.22 33.5M106.492 159.707l33.742-12.594M93.273 193.207l-35.62 5.3M88.465 185.355l-28.496 4.243M57.652 198.508l-6.61 16.75" stroke-width="1.2" stroke="#000" stroke-miterlimit="10" fill="none"/><path d="M51.043 215.258l-6.61 16.75" stroke-width="1.2" stroke="#0c0" stroke-miterlimit="10" fill="none"/><path d="M29.434 223.008h15v18h-15zm0 0" fill="#fff"/><g fill="#0c0"><use xlink:href="#a" x="29.434" y="236.622"/><use xlink:href="#b" x="39.678" y="236.622"/></g><path d="M140.234 147.113l-1.55-35.98M131.613 143.883l-1.242-28.785M140.234 147.113l30.02 19.895M138.684 111.133l-17.352-4.82" stroke-width="1.2" stroke="#000" stroke-miterlimit="10" fill="none"/><path d="M121.332 106.313l-17.348-4.82M107.926 103.047l6.61-16.75" stroke-width="1.2" stroke="#cc0" stroke-miterlimit="10" fill="none"/><path d="M114.535 86.297l6.61-16.75" stroke-width="1.2" stroke="#f00" stroke-miterlimit="10" fill="none"/><path d="M100.043 99.934l6.61-16.75" stroke-width="1.2" stroke="#cc0" stroke-miterlimit="10" fill="none"/><path d="M106.652 83.184l6.61-16.75" stroke-width="1.2" stroke="#f00" stroke-miterlimit="10" fill="none"/><path d="M105.94 97.734L89.978 89.41" stroke-width="1.2" stroke="#cc0" stroke-miterlimit="10" fill="none"/><path d="M89.977 89.41l-15.97-8.324" stroke-width="1.2" stroke="#f00" stroke-miterlimit="10" fill="none"/><path d="M102.027 105.246L86.06 96.922" stroke-width="1.2" stroke="#cc0" stroke-miterlimit="10" fill="none"/><path d="M86.06 96.922l-15.97-8.324" stroke-width="1.2" stroke="#f00" stroke-miterlimit="10" fill="none"/><path d="M98.984 92.492h10v18h-10zm0 0" fill="#fff"/><use xlink:href="#c" x="98.984" y="106.106" fill="#cc0"/><path d="M111.203 58.992h12v18h-12zm0 0" fill="#fff"/><use xlink:href="#d" x="111.203" y="72.606" fill="#f00"/><path d="M60.05 75.844h12v18h-12zm0 0" fill="#fff"/><use xlink:href="#d" x="60.051" y="89.458" fill="#f00"/><path d="M202.492 150.96m-2.88.85l.466.932m-3.34-.082l.93 1.867m-3.81-1.02l1.396 2.802m-4.27-1.95l1.856 3.734m-4.735-2.883l2.325 4.665m-5.2-3.816l2.786 5.6m-5.664-4.75l3.253 6.53m-6.128-5.682l3.714 7.47m-6.592-6.62l4.183 8.404m-7.06-7.55l4.647 9.33m-7.523-8.483l5.113 10.268m-7.992-9.418l5.578 11.2m-6.125-11.04l5.668 11.38" stroke="#000" stroke-miterlimit="10" fill="none"/><path d="M202.492 150.96l30.02 19.895M202.492 150.96l1.11-17.972" stroke-width="1.2" stroke="#000" stroke-miterlimit="10" fill="none"/><path d="M203.602 132.988l1.11-17.972" stroke-width="1.2" stroke="#00f" stroke-miterlimit="10" fill="none"/><path d="M228.28 170.594l-1.108 17.972" stroke-width="1.2" stroke="#000" stroke-miterlimit="10" fill="none"/><path d="M227.172 188.566l-1.11 17.973" stroke-width="1.2" stroke="#f00" stroke-miterlimit="10" fill="none"/><path d="M236.738 171.113l-1.11 17.973" stroke-width="1.2" stroke="#000" stroke-miterlimit="10" fill="none"/><path d="M235.63 189.086l-1.11 17.973" stroke-width="1.2" stroke="#f00" stroke-miterlimit="10" fill="none"/><path d="M232.512 170.855l16.117-8.027" stroke-width="1.2" stroke="#000" stroke-miterlimit="10" fill="none"/><path d="M248.63 162.828l16.12-8.023" stroke-width="1.2" stroke="#f00" stroke-miterlimit="10" fill="none"/><path d="M224.293 197.8h12v18h-12zm0 0" fill="#fff"/><use xlink:href="#d" x="224.293" y="211.415" fill="#f00"/><path d="M253.75 145.805h23v18h-23zm0 0" fill="#fff"/><g fill="#f00"><use xlink:href="#d" x="253.75" y="159.419"/><use xlink:href="#e" x="265.299" y="159.419"/></g><path d="M189.71 104.016h30v22h-30zm0 0" fill="#fff"/><g fill="#00f"><use xlink:href="#f" x="189.711" y="117.63"/><use xlink:href="#e" x="200.687" y="117.63"/></g><use xlink:href="#g" x="211.719" y="122.513" fill="#00f"/></g></svg>
